X: 151
T:Sean Reid's
M:4/4
L:1/8
Z:Rachel Marsh
K:G
DG ~G2 BG ~G2| cA ~A2 dcAF | DG ~G2 ~B3 d | cAdc AGGF |
DG ~G2 BG ~G2 | cA ~A2 dBdf | ~g3 a gfde | fdcA AG G2 :||
~g3 a gfde | ~f3 g fdcA | dg ~g2 gfde | fdcA AG G2 |
~g3 a gfde | ~f3 g fdcA | dg ~g2 b2 ag | fdcA AG G2 :||

